X: 1
T: Day Before Christmas, The
M: 6/8
L: 1/8
R: jig
K: Dmaj
|:DE|F2 A2 FA|BGB AFD|F2 A2 FA|BEE E DE|
F2 A2 FA|BGB ABc|dcB AFD|EDD D:|
|:zd|Bdd Add|BdB Add|Bdd ede|fdf ecA|
Bdd Add|GdG Fdd|BcB AFD|EDD D:|
